src/assets/brand/self-tags.svg

<svg width="524" height="454" viewBox="0 0 524 454" fill="none" xmlns="http://www.w3.org/2000/svg">
<path d="M5.7937 132.932C2.8537 132.932 0.837695 130.762 0.837695 127.85C0.837695 124.966 2.9097 122.768 5.7937 122.768C7.9077 122.768 9.4337 123.944 10.0917 125.484L9.1257 126.016C8.6917 124.84 7.4597 123.832 5.7937 123.832C3.5677 123.832 1.9997 125.54 1.9997 127.85C1.9997 130.188 3.5677 131.868 5.7937 131.868C7.3617 131.868 8.8037 130.916 9.2517 129.292L10.2597 129.81C9.6437 131.63 7.9357 132.932 5.7937 132.932ZM15.2358 132.932C13.0798 132.932 11.5258 131.392 11.5258 129.18C11.5258 126.982 13.0798 125.428 15.2358 125.428C17.3918 125.428 18.9458 126.982 18.9458 129.18C18.9458 131.392 17.3918 132.932 15.2358 132.932ZM12.6738 129.18C12.6738 130.79 13.7378 131.924 15.2358 131.924C16.7338 131.924 17.7978 130.79 17.7978 129.18C17.7978 127.612 16.7338 126.436 15.2358 126.436C13.7378 126.436 12.6738 127.612 12.6738 129.18ZM20.6307 132.75V125.61H21.7507V127.808C21.7507 126.772 22.5767 125.428 24.1727 125.428C25.8667 125.428 26.7627 126.688 26.7627 128.116V132.75H25.6427V128.34C25.6427 127.22 24.8027 126.464 23.7807 126.464C22.5767 126.464 21.7507 127.346 21.7507 128.55V132.75H20.6307ZM28.8612 132.75V125.61H29.9812V127.808C29.9812 126.772 30.8072 125.428 32.4032 125.428C34.0972 125.428 34.9932 126.688 34.9932 128.116V132.75H33.8732V128.34C33.8732 127.22 33.0332 126.464 32.0112 126.464C30.8072 126.464 29.9812 127.346 29.9812 128.55V132.75H28.8612ZM40.0877 132.932C37.9317 132.932 36.5317 131.322 36.5317 129.11C36.5317 126.828 38.1697 125.428 40.0737 125.428C42.2297 125.428 43.4337 127.066 43.4337 129.04C43.4337 129.222 43.4197 129.404 43.4057 129.53H37.6517C37.7917 130.958 38.6877 131.924 40.0877 131.924C41.0677 131.924 41.8517 131.532 42.3417 130.72L43.1817 131.252C42.6357 132.26 41.5017 132.932 40.0877 132.932ZM37.6657 128.55H42.3417C42.3417 127.36 41.3617 126.408 40.0737 126.408C38.6877 126.408 37.8617 127.36 37.6657 128.55ZM48.2391 132.932C46.0971 132.932 44.5571 131.336 44.5571 129.18C44.5571 127.024 46.1391 125.428 48.2391 125.428C49.5831 125.428 50.8991 126.086 51.4731 127.528L50.5211 128.018C50.2551 127.234 49.4151 126.464 48.2391 126.464C46.7551 126.464 45.7051 127.598 45.7051 129.18C45.7051 130.818 46.8111 131.896 48.2391 131.896C49.2751 131.896 50.2691 131.35 50.6891 130.188L51.5991 130.636C51.0111 132.274 49.6811 132.932 48.2391 132.932ZM55.5332 132.75C54.5532 132.75 53.8112 132.148 53.8112 130.972V126.59H52.5792V125.61H53.8392V123.986H54.9312V125.61H57.1572V126.59H54.9312V130.972C54.9312 131.546 55.2672 131.77 55.7012 131.77H57.0592V132.75H55.5332ZM58.8436 132.75V125.61H59.9636V132.75H58.8436ZM58.8156 124.392V122.95H59.9916V124.392H58.8156ZM65.3569 132.932C63.2009 132.932 61.6469 131.392 61.6469 129.18C61.6469 126.982 63.2009 125.428 65.3569 125.428C67.5129 125.428 69.0669 126.982 69.0669 129.18C69.0669 131.392 67.5129 132.932 65.3569 132.932ZM62.7949 129.18C62.7949 130.79 63.8589 131.924 65.3569 131.924C66.8549 131.924 67.9189 130.79 67.9189 129.18C67.9189 127.612 66.8549 126.436 65.3569 126.436C63.8589 126.436 62.7949 127.612 62.7949 129.18ZM70.7518 132.75V125.61H71.8718V127.808C71.8718 126.772 72.6978 125.428 74.2938 125.428C75.9878 125.428 76.8838 126.688 76.8838 128.116V132.75H75.7638V128.34C75.7638 127.22 74.9238 126.464 73.9018 126.464C72.6978 126.464 71.8718 127.346 71.8718 128.55V132.75H70.7518Z" fill="#271E29"/>
<path fill-rule="evenodd" clip-rule="evenodd" d="M89.4624 128.068C96.3399 122.288 105.383 119.016 113.207 119.661C117.289 119.997 121.024 121.397 123.961 124.044C126.897 126.689 129.072 130.613 129.98 136.062C131.235 143.589 133.002 151.907 139.353 156.987C140.996 158.301 143.277 159.943 145.685 160.908C148.087 161.87 150.729 162.2 152.978 160.7C153.208 160.547 153.27 160.237 153.117 160.007C152.963 159.777 152.653 159.715 152.423 159.868C150.577 161.099 148.332 160.891 146.057 159.979C143.788 159.071 141.599 157.503 139.978 156.207C133.964 151.395 132.228 143.467 130.967 135.898C130.028 130.264 127.761 126.122 124.631 123.301C121.502 120.482 117.548 119.015 113.289 118.664C105.137 117.992 95.8142 121.4 88.7625 127.35L88.937 124.034C88.9515 123.759 88.7397 123.523 88.464 123.509C88.1882 123.494 87.9529 123.706 87.9384 123.982L87.7019 128.476C87.6874 128.751 87.8991 128.987 88.1749 129.001L92.6687 129.238C92.9444 129.252 93.1798 129.04 93.1943 128.765C93.2088 128.489 92.997 128.254 92.7212 128.239L89.4624 128.068Z" fill="#544339"/>
<path d="M246.124 16.75V12.312H240.944V16.75H239.796V6.95H240.944V11.22H246.124V6.95H247.272V16.75H246.124ZM251.887 16.932C250.375 16.932 249.367 15.952 249.367 14.678C249.367 13.334 250.361 12.55 251.719 12.41L254.323 12.13C254.295 11.192 253.637 10.436 252.419 10.436C251.327 10.436 250.795 11.108 250.641 11.78L249.647 11.472C249.941 10.268 250.935 9.428 252.419 9.428C254.435 9.428 255.429 10.758 255.429 12.2V16.75H254.309V14.51C254.309 16.022 253.273 16.932 251.887 16.932ZM250.487 14.678C250.487 15.49 251.187 15.966 252.041 15.966C253.721 15.966 254.323 14.664 254.323 13.572V13.11L251.971 13.362C250.963 13.474 250.487 13.95 250.487 14.678ZM261.065 10.436C259.553 10.436 258.601 11.668 258.601 13.166C258.601 14.944 259.721 15.924 261.093 15.924C262.493 15.924 263.557 14.804 263.557 13.166C263.557 11.486 262.493 10.436 261.065 10.436ZM257.523 19.69V9.61H258.643V12.13C258.867 10.716 259.721 9.428 261.485 9.428C263.319 9.428 264.705 11.01 264.705 13.166C264.705 15.336 263.361 16.932 261.485 16.932C260.029 16.932 258.867 15.924 258.643 14.342V19.69H257.523ZM269.925 10.436C268.413 10.436 267.461 11.668 267.461 13.166C267.461 14.944 268.581 15.924 269.953 15.924C271.353 15.924 272.417 14.804 272.417 13.166C272.417 11.486 271.353 10.436 269.925 10.436ZM266.383 19.69V9.61H267.503V12.13C267.727 10.716 268.581 9.428 270.345 9.428C272.179 9.428 273.565 11.01 273.565 13.166C273.565 15.336 272.221 16.932 270.345 16.932C268.889 16.932 267.727 15.924 267.503 14.342V19.69H266.383ZM275.242 16.75V9.61H276.362V16.75H275.242ZM275.214 8.392V6.95H276.39V8.392H275.214ZM278.605 16.75V9.61H279.725V11.808C279.725 10.772 280.551 9.428 282.147 9.428C283.841 9.428 284.737 10.688 284.737 12.116V16.75H283.617V12.34C283.617 11.22 282.777 10.464 281.755 10.464C280.551 10.464 279.725 11.346 279.725 12.55V16.75H278.605ZM289.832 16.932C287.676 16.932 286.276 15.322 286.276 13.11C286.276 10.828 287.914 9.428 289.818 9.428C291.974 9.428 293.178 11.066 293.178 13.04C293.178 13.222 293.164 13.404 293.15 13.53H287.396C287.536 14.958 288.432 15.924 289.832 15.924C290.812 15.924 291.596 15.532 292.086 14.72L292.926 15.252C292.38 16.26 291.246 16.932 289.832 16.932ZM287.41 12.55H292.086C292.086 11.36 291.106 10.408 289.818 10.408C288.432 10.408 287.606 11.36 287.41 12.55ZM297.297 16.932C295.617 16.932 294.581 16.008 294.301 14.762L295.337 14.482C295.561 15.448 296.373 15.938 297.353 15.938C298.501 15.938 299.145 15.434 299.145 14.776C299.145 14.216 298.767 13.838 297.969 13.684L296.779 13.46C295.715 13.264 294.805 12.746 294.805 11.472C294.805 10.338 295.757 9.428 297.409 9.428C298.837 9.428 299.943 10.184 300.195 11.458L299.187 11.738C299.075 10.926 298.361 10.408 297.409 10.408C296.387 10.408 295.855 10.884 295.855 11.472C295.855 12.032 296.261 12.34 297.045 12.494L298.249 12.732C299.369 12.956 300.223 13.572 300.223 14.776C300.223 16.05 299.047 16.932 297.297 16.932ZM304.694 16.932C303.014 16.932 301.978 16.008 301.698 14.762L302.734 14.482C302.958 15.448 303.77 15.938 304.75 15.938C305.898 15.938 306.542 15.434 306.542 14.776C306.542 14.216 306.164 13.838 305.366 13.684L304.176 13.46C303.112 13.264 302.202 12.746 302.202 11.472C302.202 10.338 303.154 9.428 304.806 9.428C306.234 9.428 307.34 10.184 307.592 11.458L306.584 11.738C306.472 10.926 305.758 10.408 304.806 10.408C303.784 10.408 303.252 10.884 303.252 11.472C303.252 12.032 303.658 12.34 304.442 12.494L305.646 12.732C306.766 12.956 307.62 13.572 307.62 14.776C307.62 16.05 306.444 16.932 304.694 16.932Z" fill="#271E29"/>
<path fill-rule="evenodd" clip-rule="evenodd" d="M271.438 33.3945C271.715 33.3945 271.938 33.6184 271.938 33.8945V38.3945C271.938 38.6707 271.715 38.8945 271.438 38.8945C271.162 38.8945 270.938 38.6707 270.938 38.3945V35.108C266.846 39.2643 263.239 43.4625 261.743 47.8271C260.949 50.1433 260.755 52.4963 261.397 54.916C262.041 57.3401 263.535 59.8704 266.183 62.5189C268.134 64.4694 270.907 67.4049 272.52 70.5406C273.328 72.1115 273.865 73.768 273.837 75.4004C273.808 77.0501 273.203 78.6412 271.792 80.052C271.597 80.2472 271.28 80.2472 271.085 80.052C270.89 79.8567 270.89 79.5401 271.085 79.3449C272.312 78.1173 272.813 76.7735 272.837 75.3831C272.861 73.9754 272.397 72.4866 271.631 70.9981C270.096 68.0151 267.426 65.1759 265.476 63.226C262.737 60.4864 261.13 57.8078 260.431 55.1726C259.73 52.5331 259.95 49.9765 260.797 47.5028C262.374 42.904 266.136 38.5582 270.237 34.3945H266.938C266.662 34.3945 266.438 34.1707 266.438 33.8945C266.438 33.6184 266.662 33.3945 266.938 33.3945H271.438Z" fill="#544339"/>
<path d="M484.641 241.932C482.877 241.932 481.435 241.134 480.987 239.426L482.051 239.09C482.359 240.266 483.269 240.882 484.641 240.882C486.069 240.882 486.937 240.084 486.937 239.09C486.937 238.124 486.265 237.578 485.229 237.34L483.815 237.018C482.555 236.738 481.407 236.024 481.407 234.4C481.407 232.916 482.653 231.768 484.613 231.768C486.391 231.768 487.581 232.664 487.903 234.022L486.867 234.358C486.643 233.406 485.775 232.804 484.613 232.804C483.199 232.804 482.527 233.588 482.527 234.4C482.527 235.366 483.283 235.758 484.081 235.94L485.523 236.276C486.895 236.598 488.113 237.438 488.113 239.09C488.113 240.602 486.825 241.932 484.641 241.932ZM492.309 241.932C490.797 241.932 489.789 240.952 489.789 239.678C489.789 238.334 490.783 237.55 492.141 237.41L494.745 237.13C494.717 236.192 494.059 235.436 492.841 235.436C491.749 235.436 491.217 236.108 491.063 236.78L490.069 236.472C490.363 235.268 491.357 234.428 492.841 234.428C494.857 234.428 495.851 235.758 495.851 237.2V241.75H494.731V239.51C494.731 241.022 493.695 241.932 492.309 241.932ZM490.909 239.678C490.909 240.49 491.609 240.966 492.463 240.966C494.143 240.966 494.745 239.664 494.745 238.572V238.11L492.393 238.362C491.385 238.474 490.909 238.95 490.909 239.678ZM498.617 241.75V235.59H497.175V234.61H499.303C498.715 234.61 497.945 234.232 497.945 233.364C497.945 232.608 498.519 231.95 499.695 231.95H501.319V232.93H499.891C499.303 232.93 498.897 233.252 498.897 233.756C498.897 234.302 499.345 234.61 499.961 234.61H501.851V235.59H499.737V241.75H498.617ZM506.314 241.932C504.158 241.932 502.758 240.322 502.758 238.11C502.758 235.828 504.396 234.428 506.3 234.428C508.456 234.428 509.66 236.066 509.66 238.04C509.66 238.222 509.646 238.404 509.632 238.53H503.878C504.018 239.958 504.914 240.924 506.314 240.924C507.294 240.924 508.078 240.532 508.568 239.72L509.408 240.252C508.862 241.26 507.728 241.932 506.314 241.932ZM503.892 237.55H508.568C508.568 236.36 507.588 235.408 506.3 235.408C504.914 235.408 504.088 236.36 503.892 237.55ZM513.598 241.75C512.618 241.75 511.876 241.148 511.876 239.972V235.59H510.644V234.61H511.904V232.986H512.996V234.61H515.222V235.59H512.996V239.972C512.996 240.546 513.332 240.77 513.766 240.77H515.124V241.75H513.598ZM518.714 241.75L516.138 234.61H517.37L519.778 241.526L522.312 234.61H523.572L519.722 244.69H518.532L519.694 241.75H518.714Z" fill="#271E29"/>
<path fill-rule="evenodd" clip-rule="evenodd" d="M435.386 226.354C431.687 225.988 427.94 226.57 423.516 228.339C415.709 231.462 406.059 236.848 401.419 243.987C401.269 244.218 400.959 244.284 400.728 244.133C400.496 243.983 400.43 243.673 400.581 243.442C405.399 236.03 415.3 230.549 423.145 227.411C427.688 225.593 431.598 224.975 435.484 225.359C439.362 225.743 443.18 227.123 447.542 229.243C453.852 232.31 460.211 235.369 467.066 235.705L464.768 233.407C464.573 233.212 464.573 232.896 464.768 232.7C464.963 232.505 465.28 232.505 465.475 232.7L468.657 235.882C468.853 236.078 468.853 236.394 468.657 236.589L465.475 239.771C465.28 239.967 464.963 239.967 464.768 239.771C464.573 239.576 464.573 239.26 464.768 239.064L467.123 236.709C459.982 236.387 453.409 233.207 447.105 230.142C442.788 228.044 439.093 226.721 435.386 226.354Z" fill="#544339"/>
<path d="M474.235 417.399C471.603 417.399 469.587 415.229 469.587 412.317C469.587 409.433 471.729 407.235 474.529 407.235C476.587 407.235 478.071 408.313 478.757 409.657L477.791 410.217C477.329 409.265 476.223 408.313 474.529 408.313C472.331 408.313 470.763 410.021 470.763 412.317C470.763 414.641 472.247 416.335 474.501 416.335C476.517 416.335 478.071 414.767 478.071 413.003V412.961H474.599V411.911H479.191V417.217H478.071V413.661C478.071 416.195 476.433 417.399 474.235 417.399ZM481.286 417.217V410.077H482.392V412.933C482.392 411.281 483.344 410.007 485.066 410.007V411.211H484.912C483.162 411.211 482.406 412.387 482.406 413.745V417.217H481.286ZM489.618 417.399C487.462 417.399 485.908 415.859 485.908 413.647C485.908 411.449 487.462 409.895 489.618 409.895C491.774 409.895 493.328 411.449 493.328 413.647C493.328 415.859 491.774 417.399 489.618 417.399ZM487.056 413.647C487.056 415.257 488.12 416.391 489.618 416.391C491.116 416.391 492.18 415.257 492.18 413.647C492.18 412.079 491.116 410.903 489.618 410.903C488.12 410.903 487.056 412.079 487.056 413.647ZM496.063 417.217L494.243 410.077H495.433L497.057 416.993L498.639 410.077H500.725L502.321 416.993L503.973 410.077H505.135L503.301 417.217H501.271L499.703 410.301L498.093 417.217H496.063ZM508.86 417.217C507.88 417.217 507.138 416.615 507.138 415.439V411.057H505.906V410.077H507.166V408.453H508.258V410.077H510.484V411.057H508.258V415.439C508.258 416.013 508.594 416.237 509.028 416.237H510.386V417.217H508.86ZM512.171 417.217V407.417H513.291V412.275C513.361 411.239 514.117 409.895 515.713 409.895C517.407 409.895 518.303 411.155 518.303 412.583V417.217H517.183V412.807C517.183 411.687 516.343 410.931 515.321 410.931C514.117 410.931 513.291 411.813 513.291 413.017V417.217H512.171Z" fill="#271E29"/>
<path fill-rule="evenodd" clip-rule="evenodd" d="M421.5 368.75C421.5 368.474 421.724 368.25 422 368.25C429.755 368.25 435.179 374.653 438.738 380.754C440.929 384.509 441.772 388.493 442.071 392.538C442.278 395.327 442.226 398.178 442.175 401.005C442.153 402.257 442.13 403.504 442.13 404.739C442.13 406.623 442.971 408.012 444.356 409.065C445.76 410.132 447.721 410.848 449.91 411.318C453.719 412.137 458.063 412.187 460.99 412.186L458.66 409.856C458.464 409.661 458.464 409.344 458.66 409.149C458.855 408.954 459.172 408.954 459.367 409.149L462.549 412.331C462.744 412.526 462.744 412.843 462.549 413.038L459.367 416.22C459.172 416.415 458.855 416.415 458.66 416.22C458.464 416.025 458.464 415.708 458.66 415.513L460.987 413.186C458.057 413.187 453.614 413.138 449.699 412.296C447.449 411.812 445.324 411.057 443.75 409.861C442.157 408.649 441.13 406.982 441.13 404.739C441.13 403.464 441.153 402.195 441.176 400.932C441.227 398.128 441.277 395.354 441.074 392.612C440.781 388.656 439.962 384.837 437.875 381.258C434.33 375.18 429.163 369.25 422 369.25C421.724 369.25 421.5 369.026 421.5 368.75Z" fill="#544339"/>
<path d="M33.7622 447.209C31.9982 447.209 30.5562 446.411 30.1082 444.703L31.1722 444.367C31.4802 445.543 32.3902 446.159 33.7622 446.159C35.1902 446.159 36.0582 445.361 36.0582 444.367C36.0582 443.401 35.3862 442.855 34.3502 442.617L32.9362 442.295C31.6762 442.015 30.5282 441.301 30.5282 439.677C30.5282 438.193 31.7742 437.045 33.7342 437.045C35.5122 437.045 36.7022 437.941 37.0242 439.299L35.9882 439.635C35.7642 438.683 34.8962 438.081 33.7342 438.081C32.3202 438.081 31.6482 438.865 31.6482 439.677C31.6482 440.643 32.4042 441.035 33.2022 441.217L34.6442 441.553C36.0162 441.875 37.2342 442.715 37.2342 444.367C37.2342 445.879 35.9462 447.209 33.7622 447.209ZM42.2556 447.209C40.0996 447.209 38.6996 445.599 38.6996 443.387C38.6996 441.105 40.3376 439.705 42.2416 439.705C44.3976 439.705 45.6016 441.343 45.6016 443.317C45.6016 443.499 45.5876 443.681 45.5736 443.807H39.8196C39.9596 445.235 40.8556 446.201 42.2556 446.201C43.2356 446.201 44.0196 445.809 44.5096 444.997L45.3496 445.529C44.8036 446.537 43.6696 447.209 42.2556 447.209ZM39.8336 442.827H44.5096C44.5096 441.637 43.5296 440.685 42.2416 440.685C40.8556 440.685 40.0296 441.637 39.8336 442.827ZM50.407 447.209C48.265 447.209 46.725 445.613 46.725 443.457C46.725 441.301 48.307 439.705 50.407 439.705C51.751 439.705 53.067 440.363 53.641 441.805L52.689 442.295C52.423 441.511 51.583 440.741 50.407 440.741C48.923 440.741 47.873 441.875 47.873 443.457C47.873 445.095 48.979 446.173 50.407 446.173C51.443 446.173 52.437 445.627 52.857 444.465L53.767 444.913C53.179 446.551 51.849 447.209 50.407 447.209ZM61.4391 439.887V447.027H60.3191V444.829C60.2491 445.865 59.4511 447.209 57.8551 447.209C56.1611 447.209 55.3071 445.949 55.3071 444.521V439.887H56.4271V444.297C56.4271 445.571 57.2251 446.173 58.2471 446.173C59.4511 446.173 60.3191 445.291 60.3191 444.087V439.887H61.4391ZM63.5409 447.027V439.887H64.6469V442.743C64.6469 441.091 65.5989 439.817 67.3209 439.817V441.021H67.1669C65.4169 441.021 64.6609 442.197 64.6609 443.555V447.027H63.5409ZM68.8593 447.027V439.887H69.9793V447.027H68.8593ZM68.8313 438.669V437.227H70.0073V438.669H68.8313ZM74.4765 447.027C73.4965 447.027 72.7545 446.425 72.7545 445.249V440.867H71.5225V439.887H72.7825V438.263H73.8745V439.887H76.1005V440.867H73.8745V445.249C73.8745 445.823 74.2105 446.047 74.6445 446.047H76.0025V447.027H74.4765ZM79.593 447.027L77.017 439.887H78.249L80.657 446.803L83.191 439.887H84.451L80.601 449.967H79.411L80.573 447.027H79.593Z" fill="#271E29"/>
<path fill-rule="evenodd" clip-rule="evenodd" d="M114.022 415.511C105.429 411.325 92.5261 411.314 83.5683 414.648C80.8498 415.659 76.7938 417.568 73.428 420.103C70.4947 422.312 68.1905 424.916 67.6198 427.74L69.8119 425.548C70.0072 425.353 70.3238 425.353 70.519 425.548C70.7143 425.743 70.7143 426.06 70.519 426.255L67.337 429.437C67.1418 429.632 66.8252 429.632 66.6299 429.437L63.448 426.255C63.2527 426.06 63.2527 425.743 63.448 425.548C63.6432 425.353 63.9598 425.353 64.1551 425.548L66.5662 427.959C67.0625 424.585 69.7282 421.637 72.8265 419.304C76.2916 416.694 80.4409 414.744 83.2196 413.71C92.3939 410.297 105.585 410.288 114.46 414.612C123.333 418.935 132.257 419.724 140.607 415.549C140.854 415.426 141.154 415.526 141.278 415.773C141.401 416.02 141.301 416.32 141.054 416.444C132.358 420.792 123.098 419.933 114.022 415.511Z" fill="#544339"/>
</svg>

<svg xmlns="http://www.w3.org/2000/svg" width="524" height="454" fill="none">
  <text xml:space="preserve" fill="#271E29" font-family="Safiro" font-size="14" letter-spacing="0" style="white-space:pre"><tspan x=".138" y="132.65">Connection</tspan></text>
  <path fill="#544339" fill-rule="evenodd" d="M89.462 128.068c6.878-5.78 15.921-9.052 23.745-8.407 4.082.336 7.817 1.736 10.754 4.383 2.936 2.645 5.111 6.569 6.019 12.018 1.255 7.527 3.022 15.845 9.373 20.925 1.643 1.314 3.924 2.956 6.332 3.921 2.402.962 5.044 1.292 7.293-.208a.5.5 0 1 0-.555-.832c-1.846 1.231-4.091 1.023-6.366.111-2.269-.908-4.458-2.476-6.079-3.772-6.014-4.812-7.75-12.74-9.011-20.309-.939-5.634-3.206-9.776-6.336-12.597-3.129-2.819-7.083-4.286-11.342-4.637-8.152-.672-17.475 2.736-24.526 8.686l.174-3.316a.5.5 0 1 0-.999-.052l-.236 4.494a.5.5 0 0 0 .473.525l4.494.237a.5.5 0 0 0 .052-.999l-3.259-.171Z" clip-rule="evenodd"/>
  
  <text xml:space="preserve" fill="#271E29" font-family="Safiro" font-size="14" letter-spacing="0" style="white-space:pre"><tspan x="238.466" y="16.65">Happiness</tspan></text>
  <path fill="#544339" fill-rule="evenodd" d="M271.438 33.395a.5.5 0 0 1 .5.5v4.5a.5.5 0 1 1-1 0v-3.287c-4.092 4.156-7.699 8.355-9.195 12.72-.794 2.315-.988 4.668-.346 7.088.644 2.424 2.138 4.954 4.786 7.603 1.951 1.95 4.724 4.886 6.337 8.022.808 1.57 1.345 3.227 1.317 4.86-.029 1.65-.634 3.24-2.045 4.651a.5.5 0 0 1-.707-.707c1.227-1.228 1.728-2.572 1.752-3.962.024-1.408-.44-2.896-1.206-4.385-1.535-2.983-4.205-5.822-6.155-7.772-2.739-2.74-4.346-5.418-5.045-8.053-.701-2.64-.481-5.197.366-7.67 1.577-4.599 5.339-8.945 9.44-13.108h-3.299a.5.5 0 0 1 0-1h4.5Z" clip-rule="evenodd"/>
  
  <text xml:space="preserve" fill="#271E29" font-family="Safiro" font-size="14" letter-spacing="0" style="white-space:pre"><tspan x="480.077" y="241.65">Safety</tspan></text>
  <path fill="#544339" fill-rule="evenodd" d="M435.386 226.354c-3.699-.366-7.446.216-11.87 1.985-7.807 3.123-17.457 8.509-22.097 15.648a.499.499 0 1 1-.838-.545c4.818-7.412 14.719-12.893 22.564-16.031 4.543-1.818 8.453-2.436 12.339-2.052 3.878.384 7.696 1.764 12.058 3.884 6.31 3.067 12.669 6.126 19.524 6.462l-2.298-2.298a.5.5 0 0 1 .707-.707l3.182 3.182a.499.499 0 0 1 0 .707l-3.182 3.182a.5.5 0 0 1-.707-.707l2.355-2.355c-7.141-.322-13.714-3.502-20.018-6.567-4.317-2.098-8.012-3.421-11.719-3.788Z" clip-rule="evenodd"/>
  
  <text xml:space="preserve" fill="#271E29" font-family="Safiro" font-size="14" letter-spacing="0" style="white-space:pre"><tspan x="468.887" y="417.117">Growth</tspan></text>
  <path fill="#544339" fill-rule="evenodd" d="M421.5 368.75a.5.5 0 0 1 .5-.5c7.755 0 13.179 6.403 16.738 12.504 2.191 3.755 3.034 7.739 3.333 11.784.207 2.789.155 5.64.104 8.467-.022 1.252-.045 2.499-.045 3.734 0 1.884.841 3.273 2.226 4.326 1.404 1.067 3.365 1.783 5.554 2.253 3.809.819 8.153.869 11.08.868l-2.33-2.33a.5.5 0 0 1 .707-.707l3.182 3.182a.5.5 0 0 1 0 .707l-3.182 3.182a.5.5 0 0 1-.707-.707l2.327-2.327c-2.93.001-7.373-.048-11.288-.89-2.25-.484-4.375-1.239-5.949-2.435-1.593-1.212-2.62-2.879-2.62-5.122 0-1.275.023-2.544.046-3.807.051-2.804.101-5.578-.102-8.32-.293-3.956-1.112-7.775-3.199-11.354-3.545-6.078-8.712-12.008-15.875-12.008a.5.5 0 0 1-.5-.5Z" clip-rule="evenodd"/>
  
  <text xml:space="preserve" fill="#271E29" font-family="Safiro" font-size="14" letter-spacing="0" style="white-space:pre"><tspan x="29.198" y="446.927">Security</tspan></text>
  <path fill="#544339" fill-rule="evenodd" d="M114.022 415.511c-8.593-4.186-21.496-4.197-30.454-.863-2.718 1.011-6.774 2.92-10.14 5.455-2.933 2.209-5.237 4.813-5.808 7.637l2.192-2.192a.5.5 0 0 1 .707.707l-3.182 3.182a.5.5 0 0 1-.707 0l-3.182-3.182a.5.5 0 1 1 .707-.707l2.411 2.411c.496-3.374 3.162-6.322 6.26-8.655 3.466-2.61 7.615-4.56 10.394-5.594 9.174-3.413 22.365-3.422 31.24.902 8.873 4.323 17.797 5.112 26.147.937a.5.5 0 0 1 .447.895c-8.696 4.348-17.956 3.489-27.032-.933Z" clip-rule="evenodd"/>
</svg>
